contributed-vectors/astor.svg

<svg xmlns="http://www.w3.org/2000/svg" xmlns:xlink="http://www.w3.org/1999/xlink" viewBox="0 0 192 192"><font horiz-adv-x="2048"><font-face font-family="TimesNewRomanPS-BoldMT" units-per-em="2048" underline-position="-223" underline-thickness="195"/><glyph unicode="A" horiz-adv-x="1479" d="M852 386H373l-57-132c-19-44-28-80-28-109 0-38 15-66 46-84 18-11 62-19 133-24V0H16v37c49 7 89 28 120 61s70 101 116 204l485 1082h19l489-1112c47-105 85-172 115-199 23-21 55-33 96-36V0H800v37h27c53 0 90 7 111 22 15 11 22 26 22 46 0 12-2 24-6 37-1 6-11 31-30 75M818 460L616 927 408 460z"/><glyph unicode="O" horiz-adv-x="1593" d="M791 1375c216 8 392-55 527-189s202-302 202-503c0-172-50-323-151-454C1236 56 1047-31 804-31c-244 0-433 83-566 248C133 348 80 503 80 682c0 201 69 369 206 504 137 134 305 197 505 189m12-64c-124 0-218-63-283-190-53-104-79-253-79-448 0-231 41-402 122-513C620 83 699 44 801 44c69 0 126 17 172 50 59 43 104 111 137 205 33 93 49 215 49 366 0 179-17 314-50 403s-76 151-127 188c-52 37-112 55-179 55z"/><glyph unicode="R" horiz-adv-x="1479" d="M544 618V238c0-73 5-119 14-138s24-35 47-46 65-17 127-17V0H38v37c63 0 105 6 128 18 22 11 38 26 47 45s13 65 13 138v880c0 73-4 120-13 139s-25 34-48 45-65 17-127 17v37h630c164 0 284-11 360-34s138-64 186-125 72-133 72-215c0-100-36-183-108-248-46-41-110-72-193-93l326-459c43-59 73-96 91-111 27-21 59-32 95-34V0h-427L633 618m-89 665V689h57c93 0 162 9 208 26s82 47 109 92c26 44 39 102 39 173 0 103-24 180-72 229-49 49-127 74-234 74z"/><glyph unicode="S" horiz-adv-x="1139" d="M962 1387l11-452h-41c-19 113-67 205-142 274-76 69-158 103-246 103-68 0-122-18-161-54-40-37-60-79-60-126 0-30 7-57 21-80 19-31 50-62 93-93 31-22 104-61 217-117 159-78 266-152 321-221s82-149 82-238c0-113-44-211-132-292C836 9 724-32 588-32c-43 0-83 4-121 13S381 6 324 30c-32 13-58 20-79 20-17 0-36-7-55-20s-35-34-47-61h-37v512h37c29-144 86-254 170-329C396 76 486 38 583 38c75 0 134 20 179 61 44 41 66 88 66 142 0 32-8 63-25 93s-43 59-78 86-96 62-184 105c-123 61-212 112-266 155s-95 90-124 143-44 111-44 174c0 108 40 200 119 276s179 114 300 114c44 0 87-5 128-16 31-8 70-23 115-44 45-22 76-33 94-33 17 0 31 5 41 16s19 36 28 77z"/><glyph unicode="T" horiz-adv-x="1366" d="M1292 1356V989h-36c-21 85-45 146-71 183s-62 66-107 88c-25 12-70 18-133 18H844V232c0-69 4-113 12-130 7-17 22-32 45-45 22-13 52-20 91-20h45V0H327v37h45c39 0 71 7 95 21 17 9 31 25 41 48 7 16 11 58 11 126v1046h-98c-91 0-158-19-199-58-58-54-95-131-110-231H74v367z"/></font><font horiz-adv-x="1000"><font-face font-family="Geometos" underline-position="-75" underline-thickness="50"/><glyph horiz-adv-x="342"/><glyph unicode="E" horiz-adv-x="683" d="M219 608V425h354V298H219V126h399V0H80v732h538V608z"/><glyph unicode="G" horiz-adv-x="828" d="M790 400c-1-14-1-27-1-39-1-11-1-21-1-31 0-11 0-19-1-24-4-46-16-89-37-128s-48-73-81-101c-33-29-71-51-114-67s-89-24-136-24c-52 0-101 10-147 30s-86 47-120 82c-35 34-62 74-82 120s-30 95-30 147 10 101 30 148c20 46 47 86 82 121 34 34 74 61 120 81s95 30 147 30c66 0 127-15 182-46s99-72 133-123l-120-73c-21 31-49 58-83 79-35 21-72 32-112 32-33 0-64-7-93-20-29-14-55-32-76-55-22-23-39-49-52-79-13-31-19-62-19-95s6-65 19-95 30-56 52-79c21-23 47-41 76-54 29-14 60-21 93-21 25 0 50 4 73 12 23 7 45 18 64 32s36 31 51 50c14 19 24 41 31 64H368v126z"/><glyph unicode="I" horiz-adv-x="340" d="M240 0H100v731h140z"/><glyph unicode="M" horiz-adv-x="898" d="M817 731V0H677v370L448 95 220 370V0H80v731h9l359-422 360 422z"/><glyph unicode="N" horiz-adv-x="796" d="M701 0L219 435V0H80v731h15l481-442v442h140V0z"/><glyph unicode="R" horiz-adv-x="720" d="M219 0H80v732h332c37 0 72-6 103-18 31-13 57-30 79-52 22-23 39-49 52-80 12-31 18-65 18-102 0-55-14-104-41-145-28-41-65-71-111-89C574 165 635 83 695 0H528c-29 38-58 76-86 115s-56 78-84 118H219m0 124h193c13 0 26 3 40 8 13 5 25 12 36 23 11 10 20 23 27 38s10 33 10 54c0 11-1 23-4 38s-8 29-16 42-19 25-34 34-34 14-59 14H219z"/><glyph unicode="A" horiz-adv-x="774" d="M6 0l374 731h14L768 0H616l-57 115H214L158 0m124 237h209L387 458z"/><glyph unicode="D" horiz-adv-x="786" d="M369 0H80v732h289c105 0 191-31 258-92 36-33 63-72 82-118 18-47 27-99 27-156 0-58-9-110-27-156-19-47-46-86-82-119-33-30-71-53-114-68C469 8 421 0 369 0M220 124h149c26 0 52 3 79 9s51 18 73 36c21 17 39 42 53 73s21 72 21 123-7 92-21 124c-14 31-32 56-54 73s-46 29-73 35-53 9-78 9H220z"/><glyph unicode="C" horiz-adv-x="778" d="M750 180c-16-29-36-56-59-79-23-24-49-44-77-61-29-17-59-31-92-40s-68-14-103-14c-52 0-101 10-147 30s-86 47-120 82c-35 34-62 74-82 120s-30 95-30 147 10 101 30 147 47 86 82 121c34 34 74 61 120 81s95 30 147 30c35 0 70-5 103-14s63-22 92-39c28-17 54-38 77-61 23-24 43-50 59-79l-131-53c-11 16-23 31-37 45-15 14-31 26-48 37s-36 19-55 25-39 9-60 9c-33 0-64-7-93-20-29-14-55-32-76-55s-38-49-51-79c-13-31-19-62-19-95s6-65 19-95 30-56 51-79 47-41 76-54c29-14 60-21 93-21 21 0 41 3 60 9s38 14 55 25 33 23 48 38c14 14 26 29 37 45z"/></font><path fill="#FF8580" d="M192 172c0 11-9 20-20 20H20c-11 0-20-9-20-20V20C0 9 9 0 20 0h152c11 0 20 9 20 20v152z"/><image overflow="visible" width="180" height="180" xlink:href="9148D05F.jpg" transform="translate(-6192 -6192)"/><image overflow="visible" width="241" height="241" xlink:href="30E0AF75.jpg" transform="translate(0 -305.106)"/><text transform="translate(9.482 98.867)" fill="#FFC38A" font-family="'TimesNewRomanPS-BoldMT'" font-size="50.344">ASTOR</text><text transform="translate(32.686 123.028)" fill="#FFF" font-family="'Geometos'" font-size="13.836">GRAND CINEMA</text></svg>

<?xml version="1.0" encoding="utf-8"?>
<!-- Generator: Adobe Illustrator 17.1.0, SVG Export Plug-In . SVG Version: 6.00 Build 0)  -->
<!DOCTYPE svg PUBLIC "-//W3C//DTD SVG 1.1//EN" "http://www.w3.org/Graphics/SVG/1.1/DTD/svg11.dtd">
<svg version="1.1" id="Слой_1" xmlns="http://www.w3.org/2000/svg" xmlns:xlink="http://www.w3.org/1999/xlink" x="0px" y="0px"
	 viewBox="0 0 192 192" enable-background="new 0 0 192 192" xml:space="preserve">
<font horiz-adv-x="2048">
<!-- Times New Roman is a trademark of The Monotype Corporation. -->
<!-- Copyright: Copyright 2018 Adobe System Incorporated. All rights reserved. -->
<font-face font-family="TimesNewRomanPS-BoldMT" units-per-em="2048" underline-position="-223" underline-thickness="195"/>
<missing-glyph horiz-adv-x="1593" d="M284,0l0,1280l1024,0l0,-1280M316,32l960,0l0,1216l-960,0z"/>
<glyph unicode="A" horiz-adv-x="1479" d="M852,386l-479,0l-57,-132C297,210 288,174 288,145C288,107 303,79 334,61C352,50 396,42 467,37l0,-37l-451,0l0,37C65,44 105,65 136,98C167,131 206,199 252,302l485,1082l19,0l489,-1112C1292,167 1330,100 1360,73C1383,52 1415,40 1456,37l0,-37l-656,0l0,37l27,0C880,37 917,44 938,59C953,70 960,85 960,105C960,117 958,129 954,142C953,148 943,173 924,217M818,460l-202,467l-208,-467z"/>
<glyph unicode="O" horiz-adv-x="1593" d="M791,1375C1007,1383 1183,1320 1318,1186C1453,1052 1520,884 1520,683C1520,511 1470,360 1369,229C1236,56 1047,-31 804,-31C560,-31 371,52 238,217C133,348 80,503 80,682C80,883 149,1051 286,1186C423,1320 591,1383 791,1375M803,1311C679,1311 585,1248 520,1121C467,1017 441,868 441,673C441,442 482,271 563,160C620,83 699,44 801,44C870,44 927,61 973,94C1032,137 1077,205 1110,299C1143,392 1159,514 1159,665C1159,844 1142,979 1109,1068C1076,1157 1033,1219 982,1256C930,1293 870,1311 803,1311z"/>
<glyph unicode="R" horiz-adv-x="1479" d="M544,618l0,-380C544,165 549,119 558,100C567,81 582,65 605,54C628,43 670,37 732,37l0,-37l-694,0l0,37C101,37 143,43 166,55C188,66 204,81 213,100C222,119 226,165 226,238l0,880C226,1191 222,1238 213,1257C204,1276 188,1291 165,1302C142,1313 100,1319 38,1319l0,37l630,0C832,1356 952,1345 1028,1322C1104,1299 1166,1258 1214,1197C1262,1136 1286,1064 1286,982C1286,882 1250,799 1178,734C1132,693 1068,662 985,641l326,-459C1354,123 1384,86 1402,71C1429,50 1461,39 1497,37l0,-37l-427,0l-437,618M544,1283l0,-594l57,0C694,689 763,698 809,715C855,732 891,762 918,807C944,851 957,909 957,980C957,1083 933,1160 885,1209C836,1258 758,1283 651,1283z"/>
<glyph unicode="S" horiz-adv-x="1139" d="M962,1387l11,-452l-41,0C913,1048 865,1140 790,1209C714,1278 632,1312 544,1312C476,1312 422,1294 383,1258C343,1221 323,1179 323,1132C323,1102 330,1075 344,1052C363,1021 394,990 437,959C468,937 541,898 654,842C813,764 920,690 975,621C1030,552 1057,472 1057,383C1057,270 1013,172 925,91C836,9 724,-32 588,-32C545,-32 505,-28 467,-19C429,-10 381,6 324,30C292,43 266,50 245,50C228,50 209,43 190,30C171,17 155,-4 143,-31l-37,0l0,512l37,0C172,337 229,227 313,152C396,76 486,38 583,38C658,38 717,58 762,99C806,140 828,187 828,241C828,273 820,304 803,334C786,364 760,393 725,420C690,447 629,482 541,525C418,586 329,637 275,680C221,723 180,770 151,823C122,876 107,934 107,997C107,1105 147,1197 226,1273C305,1349 405,1387 526,1387C570,1387 613,1382 654,1371C685,1363 724,1348 769,1327C814,1305 845,1294 863,1294C880,1294 894,1299 904,1310C914,1321 923,1346 932,1387z"/>
<glyph unicode="T" horiz-adv-x="1366" d="M1292,1356l0,-367l-36,0C1235,1074 1211,1135 1185,1172C1159,1209 1123,1238 1078,1260C1053,1272 1008,1278 945,1278l-101,0l0,-1046C844,163 848,119 856,102C863,85 878,70 901,57C923,44 953,37 992,37l45,0l0,-37l-710,0l0,37l45,0C411,37 443,44 467,58C484,67 498,83 508,106C515,122 519,164 519,232l0,1046l-98,0C330,1278 263,1259 222,1220C164,1166 127,1089 112,989l-38,0l0,367z"/>
</font>

	<font horiz-adv-x="1000">
<!-- Geometos is a trademark of Deepak Singh Dogra. -->
<!-- Copyright: Copyright 2018 Adobe System Incorporated. All rights reserved. -->
<font-face font-family="Geometos" units-per-em="1000" underline-position="-75" underline-thickness="50"/>
<missing-glyph horiz-adv-x="500"/>
<glyph unicode=" " horiz-adv-x="342"/>
<glyph unicode="E" horiz-adv-x="683" d="M219,608l0,-183l354,0l0,-127l-354,0l0,-172l399,0l0,-126l-538,0l0,732l538,0l0,-124z"/>
<glyph unicode="G" horiz-adv-x="828" d="M790,400C789,386 789,373 789,361C788,350 788,340 788,330C788,319 788,311 787,306C783,260 771,217 750,178C729,139 702,105 669,77C636,48 598,26 555,10C512,-6 466,-14 419,-14C367,-14 318,-4 272,16C226,36 186,63 152,98C117,132 90,172 70,218C50,264 40,313 40,365C40,417 50,466 70,513C90,559 117,599 152,634C186,668 226,695 272,715C318,735 367,745 419,745C485,745 546,730 601,699C656,668 700,627 734,576l-120,-73C593,534 565,561 531,582C496,603 459,614 419,614C386,614 355,607 326,594C297,580 271,562 250,539C228,516 211,490 198,460C185,429 179,398 179,365C179,332 185,300 198,270C211,240 228,214 250,191C271,168 297,150 326,137C355,123 386,116 419,116C444,116 469,120 492,128C515,135 537,146 556,160C575,174 592,191 607,210C621,229 631,251 638,274l-270,0l0,126z"/>
<glyph unicode="I" horiz-adv-x="340" d="M240,0l-140,0l0,731l140,0z"/>
<glyph unicode="M" horiz-adv-x="898" d="M817,731l0,-731l-140,0l0,370l-229,-275l-228,275l0,-370l-140,0l0,731l9,0l359,-422l360,422z"/>
<glyph unicode="N" horiz-adv-x="796" d="M701,0l-482,435l0,-435l-139,0l0,731l15,0l481,-442l0,442l140,0l0,-731z"/>
<glyph unicode="R" horiz-adv-x="720" d="M219,0l-139,0l0,732l332,0C449,732 484,726 515,714C546,701 572,684 594,662C616,639 633,613 646,582C658,551 664,517 664,480C664,425 650,376 623,335C595,294 558,264 512,246C574,165 635,83 695,0l-167,0C499,38 470,76 442,115C414,154 386,193 358,233l-139,0M219,357l193,0C425,357 438,360 452,365C465,370 477,377 488,388C499,398 508,411 515,426C522,441 525,459 525,480C525,491 524,503 521,518C518,533 513,547 505,560C497,573 486,585 471,594C456,603 437,608 412,608l-193,0z"/>
<glyph unicode="A" horiz-adv-x="774" d="M6,0l374,731l14,0l374,-731l-152,0l-57,115l-345,0l-56,-115M282,237l209,0l-104,221z"/>
<glyph unicode="D" horiz-adv-x="786" d="M369,0l-289,0l0,732l289,0C474,732 560,701 627,640C663,607 690,568 709,522C727,475 736,423 736,366C736,308 727,256 709,210C690,163 663,124 627,91C594,61 556,38 513,23C469,8 421,0 369,0M220,124l149,0C395,124 421,127 448,133C475,139 499,151 521,169C542,186 560,211 574,242C588,273 595,314 595,365C595,416 588,457 574,489C560,520 542,545 520,562C498,579 474,591 447,597C420,603 394,606 369,606l-149,0z"/>
<glyph unicode="C" horiz-adv-x="778" d="M750,180C734,151 714,124 691,101C668,77 642,57 614,40C585,23 555,9 522,0C489,-9 454,-14 419,-14C367,-14 318,-4 272,16C226,36 186,63 152,98C117,132 90,172 70,218C50,264 40,313 40,365C40,417 50,466 70,512C90,558 117,598 152,633C186,667 226,694 272,714C318,734 367,744 419,744C454,744 489,739 522,730C555,721 585,708 614,691C642,674 668,653 691,630C714,606 734,580 750,551l-131,-53C608,514 596,529 582,543C567,557 551,569 534,580C517,591 498,599 479,605C460,611 440,614 419,614C386,614 355,607 326,594C297,580 271,562 250,539C229,516 212,490 199,460C186,429 180,398 180,365C180,332 186,300 199,270C212,240 229,214 250,191C271,168 297,150 326,137C355,123 386,116 419,116C440,116 460,119 479,125C498,131 517,139 534,150C551,161 567,173 582,188C596,202 608,217 619,233z"/>
</font>

	<path fill="#FF8580" d="M192,172c0,11-9,20-20,20H20c-11,0-20-9-20-20V20C0,9,9,0,20,0h152c11,0,20,9,20,20V172z"/>
<image overflow="visible" width="180" height="180" xlink:href="9148D05F.jpg"  transform="matrix(1 0 0 1 -6192 -6192)">
</image>
<image overflow="visible" width="241" height="241" xlink:href="30E0AF75.jpg"  transform="matrix(1 0 0 1 0 -305.1059)">
</image>
<text transform="matrix(1 0 0 1 9.4823 98.8672)" fill="#FFC38A" font-family="'TimesNewRomanPS-BoldMT'" font-size="50.3437">ASTOR</text>
<text transform="matrix(1 0 0 1 32.6864 123.0284)" fill="#FFFFFF" font-family="'Geometos'" font-size="13.8361">GRAND   CINEMA</text>
</svg>
